X:115
T: Old Womens' Money
N: O'Farrell's Pocket Companion v.2 (Sky ed. p.63)
N: "Irish"
N: I think O'Farrell's original key signature (D) is incorrect.
M: 6/8
L: 1/8
R: jig
Q: 320
K: G
A |: d2d dfd|cBc ABc|d2d def|g3 gfe|
d2d dfd|cBc A2 B/c/|dBG cAF |G3 GFE :|
DED D2F|EFE E2F|DED D2F|G3 GFE|
DED D2F|EGE E2F|dBG cAF|G3 GFE :|
